X:515
T: Bauer keen Edelmann (221a), S. 476
N: T0403
O: Luxemburg
S: Singendes Volk, Esch-Alzette, 1937 posth.]
N: Ddelingen, hhh Lorenz Aschenberger, 1910
R: Berufslied]
M: 6/8
L: 1/8
K: G
 | GGGBBB | dded2z |
GGGBBB | dded2z |
d3d2c | e2ee2z |
c3cBA | d2dd2z |
GGGBBB | d2ed2z |
BBddcA | G2z4

@@@ Tune index: 8569
